X:3361
T:Contented wi' Little
T:Lumps of Pudding
N:to my thinking the greatest song Burns ever wrote; based on
N:a mildly bawdy Lowland song tune of the early 18th century
G:song
M:6/8
L:1/8
K:EDor
E   |E>FE E<ed  |B>AB E2G   |F>ED D<dB|AFA D2
d/e/|f>ed B2e/d/|B>AF d2d/c/|B>AF E>FA|B>AB E2||
B   |B<GB BGB   |B>AB E2F/G/|AFA  AFA |A>FA D2
d/e/|f>ed B<ed  |B>AF d2d/c/|BAF  EFA |B>AB E2|]


